svgs/thin/face-clouds.svg

<svg xmlns="http://www.w3.org/2000/svg" viewBox="0 0 640 512"><!--! Font Awesome Pro 6.4.0 by @fontawesome - https://fontawesome.com License - https://fontawesome.com/license (Commercial License) Copyright 2023 Fonticons, Inc. --><path d="M136 0c20.3 0 38.6 8.4 51.6 21.8c8.7-3.7 18.3-5.8 28.4-5.8c39.8 0 72 32.2 72 72s-32.2 72-72 72H64C28.7 160 0 131.3 0 96S28.7 32 64 32H76.1C89 12.7 111 0 136 0zM80.3 48H64C37.5 48 16 69.5 16 96s21.5 48 48 48H216c30.9 0 56-25.1 56-56s-25.1-56-56-56c-9.1 0-17.6 2.2-25.2 6c-4.1 2.1-9.3 1-12.3-2.5C168.2 23.6 153 16 136 16c-20.5 0-38.5 11.1-48.2 27.5c-1.6 2.7-4.3 4.5-7.4 4.5zm208-46.1C298.7 .7 309.3 0 320 0C461.4 0 576 114.6 576 256c0 7.3-.3 14.5-.9 21.7c-4.9-3.1-10-5.7-15.5-7.8c.3-4.6 .4-9.2 .4-13.8C560 123.5 452.5 16 320 16c-6.6 0-13.1 .3-19.5 .8c-3.6-5.3-7.7-10.3-12.1-14.8zM80 256c0 102.6 64.4 190.2 155 224.5c3.7 7.6 8.2 14.8 13.4 21.3C141.9 470.9 64 372.6 64 256c0-22.1 2.8-43.5 8.1-64H88.6C83 212.4 80 233.8 80 256zm144.4-48a16 16 0 1 1 32 0 16 16 0 1 1 -32 0zm176-16a16 16 0 1 1 0 32 16 16 0 1 1 0-32zM583.9 355.6C616.4 365.8 640 396.1 640 432c0 44.2-35.8 80-80 80H336c-44.2 0-80-35.8-80-80c0-39.1 28-71.6 65.1-78.6c7-46.1 46.8-81.4 94.9-81.4c28.7 0 54.5 12.6 72 32.5c9.4-5.4 20.3-8.5 32-8.5c33.9 0 61.6 26.3 63.9 59.6zM568 360c0-26.5-21.5-48-48-48c-10 0-19.3 3.1-27 8.3c-4.4 3-10.8 2.3-14.1-1.9C464.2 299.9 441.5 288 416 288c-41.5 0-75.6 31.6-79.6 72c-.4 4.4-4 7.9-8.4 8.5c-31.6 3.9-56 30.9-56 63.5c0 35.3 28.7 64 64 64H560c35.3 0 64-28.7 64-64c0-30-20.6-55.1-48.4-62.1c-4.4-1.1-7.6-5.3-7.6-9.9z"/></svg>

<svg xmlns="http://www.w3.org/2000/svg" viewBox="0 0 640 512"><!--! Font Awesome Pro 6.3.0 by @fontawesome - https://fontawesome.com License - https://fontawesome.com/license (Commercial License) Copyright 2023 Fonticons, Inc. --><path d="M187.6 21.81C196.3 18.07 205.9 16 216 16C255.8 16 288 48.24 288 88C288 127.8 255.8 160 216 160H64C28.65 160 0 131.3 0 96C0 60.65 28.65 32 64 32H76.13C89.03 12.72 111 0 136 0C156.3 0 174.6 8.374 187.6 21.81zM136 16C113.7 16 94.38 29.08 85.39 48H64C37.49 48 16 69.49 16 96C16 122.5 37.49 144 64 144H216C246.9 144 272 118.9 272 88C272 57.07 246.9 32 216 32C206.3 32 197.3 34.45 189.3 38.75C187.3 39.84 185.4 41.05 183.5 42.37C182.3 40.43 180.1 38.57 179.6 36.8C169.3 24.11 153.6 16 136 16H136zM320 0C461.4 0 576 114.6 576 256C576 263.3 575.7 270.5 575.1 277.7C570.2 274.6 565.1 271.9 559.6 269.8C559.9 265.3 560 260.6 560 256C560 123.5 452.5 16 319.1 16C313.4 16 306.9 16.26 300.5 16.78C296.8 11.49 292.8 6.526 288.3 1.941C298.7 .6598 309.3 0 319.1 0L320 0zM80 256C80 358.6 144.4 446.2 235 480.5C238.7 488.2 243.2 495.3 248.5 501.9C141.9 470.9 64 372.6 64 256C64 233.9 66.8 212.5 72.06 192H88.63C83 212.4 79.1 233.8 79.1 256H80zM256.4 208C256.4 216.8 249.2 224 240.4 224C231.5 224 224.4 216.8 224.4 208C224.4 199.2 231.5 192 240.4 192C249.2 192 256.4 199.2 256.4 208zM384.4 208C384.4 199.2 391.5 192 400.4 192C409.2 192 416.4 199.2 416.4 208C416.4 216.8 409.2 224 400.4 224C391.5 224 384.4 216.8 384.4 208zM488 304.5C497.4 299.1 508.4 296 520 296C553.9 296 581.6 322.3 583.9 355.6C616.4 365.8 640 396.1 640 432C640 476.2 604.2 512 560 512H336C291.8 512 256 476.2 256 432C256 392.9 284 360.4 321.1 353.4C328.1 307.3 367.9 272 416 272C444.7 272 470.5 284.6 488 304.5V304.5zM567.9 362.5C567.1 361.6 568 360.8 568 360C568 333.5 546.5 312 520 312C511.9 312 504.3 313.1 497.7 317.5C492.9 320 488.5 323.4 484.9 327.3C482.1 322.6 478.9 318.2 475.3 314.2C460.6 298.1 439.5 287.1 416 287.1C371.8 287.1 336 323.8 336 368C300.7 368 272 396.7 272 432C272 467.3 300.7 496 336 496H560C595.3 496 624 467.3 624 432C624 401.9 603.2 376.6 575.1 369.8C572.6 369.2 569.9 368.7 567.3 368.4C567.6 366.5 567.8 364.5 567.9 362.5L567.9 362.5z"/></svg>
